azure-patterns/svg-scale-graph.svg

<svg xmlns="http://www.w3.org/2000/svg" viewBox="0 0 49 49">
                                
                            
<path d="M48.0117 36.0238V33.522L0.0285606 33.522V36.0238L48.0117 36.0238Z" fill="#0078D4"></path>
<path d="M35.373 30.9818H25.293V38.5548H35.373V30.9818Z" fill="#50E6FF"></path>
<path d="M48.0226 42.4045H37.9258V44.8137H48.0226V42.4045Z" fill="#0078D4"></path>
<path d="M44.1787 48.6563V38.5562H41.7703V48.6563H44.1787Z" fill="#0078D4"></path>
<path d="M10.1271 42.3961H0.0302734V44.8053H10.1271V42.3961Z" fill="#0078D4"></path>
<path d="M10.1361 18.3462H0.0224609V25.9023H10.1361V18.3462Z" fill="#0078D4"></path>
<path d="M22.7672 13.2835H12.6367V25.9023H22.7672V13.2835Z" fill="#0078D4"></path>
<path d="M35.391 8.33032H25.2773V25.9192H35.391V8.33032Z" fill="#50E6FF"></path>
<path d="M48.0225 0.65625H37.9004V25.9023H48.0225V0.65625Z" fill="#0078D4"></path>
</svg>

<svg xmlns="http://www.w3.org/2000/svg" viewBox="0 0 49 49"><path d="M48.012 36.024v-2.502H.029v2.502h47.983z" fill="#0078D4"/><path d="M35.373 30.982h-10.08v7.573h10.08v-7.573z" fill="#50E6FF"/><path d="M48.023 42.404H37.926v2.41h10.097v-2.41z" fill="#0078D4"/><path d="M44.179 48.656v-10.1H41.77v10.1h2.409zM10.127 42.396H.03v2.41h10.097v-2.41zM10.136 18.346H.022v7.556h10.114v-7.556zM22.767 13.284h-10.13v12.618h10.13V13.283z" fill="#0078D4"/><path d="M35.391 8.33H25.277v17.59h10.114V8.33z" fill="#50E6FF"/><path d="M48.023.656H37.9v25.246h10.123V.656z" fill="#0078D4"/></svg>
